X:2
I:linebreak $
T:Galliard: Can She Excuse
C:John Dowland, setting from Morley's Consort Lessons, 1599 & 1611
M:3/2
L:1/4
K:F major
"Gm"G2d2g2 | "Bb"f3ed2 | "Bb"d2"F"c2"Gm"B2 | "D"A6 | "Dm"f2"Gm"d"Cm"_e2"F"c | "Bb"d3c"Eb"B2 | 
"C"c2"Gm"B2"D"A2 | "G"G6 ::"Dm"d2d2"Bb"d2 | "Gm"d2"D"d"Gm"d2"C"e | "F"f2"Bb"f2"Eb"Bc | "D"d6 | 
"Dm"f2"Gm"d"Cm"_e2"F"c | "Bb"d4"Cm"_e2 | "D"d2"Eb"g4 | "D"^f6 ::"Bb"d6 | "Bb"d6 | 
"C"e6 | "C"e6 | "D"d6 | "D"d4dc | "G"=B3/c/d"C"e"D"c2 | "G"=B4G2 :| 

